**kern
*staff1
*head1[head1a]
*solo1[solo1a]
*solo2[solo2a]
*solo3[solo3a]
*clefG2
*k[]
*C:
*M4/4
*>head1a
{[8g/
=1
8g/]
4f/
8c/
4e/
8g/L
[8f/J
=2
8f/]
4cc\
8e/
8g/L
8g/
8g-/
8f/J
=3
4e/
8r
[8cc\
8cc\]
4g/
8e/
=4
8a-\L
8cc\
8ee\
8dd\J
16dd-\LL
16ee-\J
[8cc\
8cc\]
8b-\J
=5
4a/
8r
[8ee-\
8ee-\]
4dd\
8cc\
=6
8dd\L
8cc\
8ee-\
[8a-\J
4a-/]
8r
[8g/
=7
8g/]
4ee\
8g/
8dd/L
8cc/
8g/
8e/J
=8
8b-\L
[8ff\J
4ff\]
8r
4cc\
8a/
=9
8cc\L
16dd\L
16cc\J
8b\
8a\J
4cc\
8r
[8f/
=10
8f/]
4f/
8f/
4g-/
8r
8g-/
=11
8b/L
8a-/
8an/
8cc/J
4r
8r
[8b\
=12
8b\]
4a/
8f/
4a-/}
8r
8g/
=13
8b\
4a/
8f/
4a-/
8r
*>solo1a
{24ee\LL
24dd\
24cc\JJ
=14:|!
8b/L
8a/
8g/
8f/J
8e/L
8G/
8B/
8d/J
=15||
8c/L
8B-/J
16A/LL
16c/
16e-/
16g/JJ
8f/L
8e-/
8A-/
8G-/J
=16
8G/L
8f/
8d/
8e-/J
8en/L
[8B-/J
4B-/]}
=17
2r
4r
8r
{24cc\LL
24cc\
24cc\JJ
=18
12ee-\L
12ff\
12ee-\J
8cc\L
8ee-\J}
4r
8r
{8cc\
=19
12b-\L
12cc\
12b-\J
8g/L
8a/J
8g/L
8f/
8e-/
8c/J
=20
[4e/
8e/L]
16f/L
16f#/JJ
8g/L
8fn/
8e/
8d/J
=21
12d-/L
12e/
12g/J
8b-/L
8a-/J
8an\L
8ff\
8ee\
8dd-\J
=22
8dd/L
[8a/J
4a/]}
2r
=23
4r
{16ee\LL
16ee-\
16dd\
16dd-\JJ
16cc/LL
16b-/
16a/
16a-/JJ
16g/LL
16f/
16c/
32g/L
32g-/JJJ
=24
16f/LL
16e/
16d/
16c/J
8.B/
16d/Jk
16f/LL
16a/
16g/
16f/JJ
16e/LL
16G/
16A/
16B/JJ
=25
16d/LL
16c/JJ
24B/LL
24c/
24e/JJ
8f#/}
8r
4r
8r
*>solo2a
{8e/
=26
12e/L
12f/
12f#/J
8g/L
8a/J
8b-\L
8cc\
8dd\
8cc\J
=27||
4a/
8r
16dd\LL
16cc\JJ
8b-/L
8a/
8a-/
8f/J
=28
8e-/L
8d-/
8a-/
8g-/J
8f/L
8G/
8A/
[8B-/J
=29
4B-/]}
4r
2r
=30
8r
{[8dd\
24dd\LL]
24ee-\
24dd\JJ
8cc\
8dd\L
8cc\J
8r
[8b-\
=31
24b-\LL]1F:dom
24cc\
24b-\JJ
8g/
16g/LK
8.f/J
4r
8r
[8e/
=32
12e/L]
12f/
12f#/J
8g/L
8fn/J
4e/
4r
=33
8r
8e-/
16en/LL
16g/JJ
24b\LL
24dd\
24gg\JJ}
2r
=34
4r
8r
{8d/
12f/L
12a/
12cc/J
8ee\L
8ee-\J
=35
8dd\L
8dd-\
8cc\
8b-\J
24a-/LL
24b-/
24a-/JJ
8f/L
8e-/
8c/J
=36
24g/LL
24a/
24g/JJ
8f/L
8e/
8c/J
4d/}
4r
=37
2r
4r
8r
*>solo3a
{16d/LL
16e-/JJ
=38
8e/L
8g/
8g/
8a/J
4e/
8c/L
[8e-/J
=39||
8e-/L]
8c/
8f/
8f#/J
4r
8a/L
8a-/J
=40
8g/L
8f/J
16e/LL
16g/
16b-/
16dd/JJ
16ff\LL
16dd\
16ee-\
16een\JJ
16cc\LL
16cc#\
16dd\
16ccn\JJ
=41
16b-/LL
16a/
16g/
16f/JJ
16e/LL
16g/
16b-/
16dd/JJ
4cc\
8r
8b-\
=42
24a/LL
24b-/
24a/JJ
8f/L
8d/
8c/J
8g/L
8f/
8e-/
8c/J
=43
4d/}
4r
2r
=44
4r
{12ee\L
12ff\
12ff#\J
8gg\L
8b\
8cc\
8ffn\J
=45
8ee\L
8dd\
8dd-\
8e\J
8g/L
8b-/
8a/
8g/J
=46
8f/
24ee\LL
24dd\
24cc\JJ
8a/L
8f/J
8d/L
8A/
8c/
[8B/J
=47
8B/L]
8a-/J
24g/LL
24a-/
24g/JJ
8f/
8d/L
[8A-/J
4A-/]
=48
8r
8f/L
8e/
8c/J
8d/L
8B/J
12c/L
12e/
12g/J
=49
8b\L
8cc\
8cc\
8cc\J
8g/L
8f/
8e-/
8c/J
=50
[4e/
12e/L]
12g/
12e/J
8d/L
[8c/J
4c/]}
==
*-
